X:1
T:Armagh, CM
T:James Turle, 1863
T:Armagh, CM
T:Public Domain
C:James Turle, 1863
Z:Public Domain
%%score ( 1 2 ) ( 3 4 )
L:1/8
M:3/4
K:Eb
V:1 treble 
V:2 treble 
V:3 bass 
V:4 bass 
V:1
 [EB]2 [EG]2 [FA]2 | [DF]4 E2 | (E2 A2) [Ec]2 | [EB]4 [Ee]2 | (e2 d2) [Ec]2 | (G2 c2) [F=B]2 | %6
 [Ec]6 | [Ec]2 [Ad]2 [Ae]2 | [FB]4 [DG]2 | E4 [FA]2 | [DF]6 | E2 [EF]2 [EA]2 | [EG]4 [DF]2 | E6 |] %14
V:2
 x6 | x4 E2 | E4 x2 | x6 | F4 x2 | E4 x2 | x6 | x6 | x6 | E4 x2 | x6 | E2 x4 | x6 | E6 |] %14
V:3
 [E,G,]2 [E,B,]2 [A,,C]2 | B,2 A,2 [C,G,]2 | ([_D,G,]2 [C,A,]2) [A,,A,]2 | [E,G,]4 [C,G,]2 | %4
 [F,A,]4 [F,A,]2 | (G,2 E2) [G,,D]2 | [C,C]6 | [A,E]2 [F,D]2 [E,C]2 | [D,B,]4 [B,,B,]2 | %9
 [C,G,]4 [A,,C]2 | [B,,B,]6 | [C,G,]2 [A,,C]2 [F,,C]2 | [B,,B,]4 [B,,A,]2 | [E,G,]6 |] %14
V:4
 x6 | B,,4 x2 | x6 | x6 | x6 | G,4 x2 | x6 | x6 | x6 | x6 | x6 | x6 | x6 | x6 |] %14

